packages/kaspersky-hexa-ui-icons/src/iconsSVGs/16/TelegramColor.svg

<svg width="16" height="16" viewBox="0 0 16 16" fill="none" xmlns="http://www.w3.org/2000/svg">
<path d="M8.00001 15C11.866 15 15 11.866 15 8.00001C15 4.13401 11.866 1 8.00001 1C4.13401 1 1 4.13401 1 8.00001C1 11.866 4.13401 15 8.00001 15Z" fill="url(#paint0_linear_29788_2469)"/>
<path fill-rule="evenodd" clip-rule="evenodd" d="M4.16859 7.92611C6.20924 7.03703 7.56999 6.4509 8.25084 6.16771C10.1948 5.35914 10.5988 5.21868 10.862 5.21405C10.9199 5.21303 11.0494 5.22738 11.1333 5.29543C11.2041 5.35289 11.2236 5.43052 11.2329 5.485C11.2422 5.53948 11.2539 5.66359 11.2446 5.76057C11.1393 6.86743 10.6835 9.5535 10.4516 10.7932C10.3534 11.3178 10.1602 11.4937 9.97317 11.5109C9.56666 11.5483 9.25799 11.2422 8.86427 10.9841C8.24818 10.5803 7.90012 10.3289 7.3021 9.9348C6.61098 9.47936 7.059 9.22904 7.45287 8.81996C7.55595 8.7129 9.34701 7.08379 9.38168 6.936C9.38601 6.91752 9.39004 6.84862 9.34911 6.81224C9.30818 6.77586 9.24777 6.7883 9.20417 6.7982C9.14238 6.81222 8.15817 7.46275 6.25153 8.74978C5.97217 8.94162 5.71912 9.03509 5.49241 9.03019C5.24247 9.02479 4.76169 8.88887 4.40429 8.77269C3.96591 8.63019 3.6175 8.55485 3.64784 8.31285C3.66364 8.18679 3.83722 8.05788 4.16859 7.92611Z" fill="white"/>
<defs>
<linearGradient id="paint0_linear_29788_2469" x1="701.001" y1="1" x2="701.001" y2="1390.62" gradientUnits="userSpaceOnUse">
<stop stop-color="#2AABEE"/>
<stop offset="1" stop-color="#229ED9"/>
</linearGradient>
</defs>
</svg>

<svg xmlns="http://www.w3.org/2000/svg" width="16" height="16" fill="none" viewBox="0 0 16 16"><path fill="url(#a)" d="M8 15c3.866 0 7-3.134 7-7s-3.134-7-7-7-7 3.134-7 7 3.134 7 7 7"/><path fill="#fff" fill-rule="evenodd" d="M4.1686 7.9261q3.061-1.3335 4.0822-1.7584c1.944-.8086 2.348-.949 2.6112-.9536.0579-.001.1874.0133.2713.0813.0708.0575.0903.1351.0996.1896s.021.1786.0117.2756c-.1053 1.1068-.5611 3.7929-.793 5.0326-.0982.5246-.2914.7005-.4784.7177-.4065.0374-.7152-.2687-1.109-.5268-.616-.4038-.964-.6552-1.5621-1.0493-.6911-.4554-.2431-.7058.1508-1.1148.103-.1071 1.8941-1.7362 1.9288-1.884.0043-.0185.0083-.0874-.0326-.1238-.041-.0363-.1013-.0239-.145-.014q-.0926.021-2.9526 1.9516-.419.2877-.759.2804c-.25-.0054-.7308-.1413-1.0882-.2575-.4384-.1425-.7868-.2179-.7565-.4599q.0237-.189.5208-.3867" clip-rule="evenodd"/><defs><linearGradient id="a" x1="701" x2="701" y1="1" y2="1391" gradientUnits="userSpaceOnUse"><stop stop-color="#2aabee"/><stop offset="1" stop-color="#229ed9"/></linearGradient></defs></svg>
